X:118 
T:Lord Wilson's Hornpipe 
F:file ID: cre.5/118lord_w
B:CRE5.213 (CornphÃÂÃÂÃÂÃÂ­opa an Tiarna Wilson)
M:4/4
Q:140
R:hornpipe
K:D
(3ABc|d2dA FDFA|BGBd cABc|dcde fcdB|ABcd egfe|
d2dA FDFA|GBGd cedB|Acdf Acec|d2f2d2:|
|:dc|BABc dcdB|AFGA Bcde|feec dccB|ceed e2dc|
BABc dcdB|AFGA BcdB|Acdf Acec|1d2f2d2:|
[2 "last time"d2f2d2-|d8|]

%%%

